images/clients/Alibaba.svg

<svg width="56" height="32" viewBox="0 0 56 32" fill="none" xmlns="http://www.w3.org/2000/svg">
<path d="M2.79647 30.9251H0L4.30451 22.6089H7.3938L11.508 30.9251H8.40404L7.77447 29.4317H3.45532L2.79647 30.9251ZM7.02777 27.6162L5.69542 24.5854L4.28987 27.6162H7.02777Z" fill="#FF6600"/>
<path d="M12.1421 22.6086H14.8214V30.9248H12.1421V22.6086Z" fill="#FF6600"/>
<path d="M16.1836 22.6086H18.8629V24.307H16.1836V22.6086ZM16.1836 25.1269H18.8629V30.9248H16.1836V25.1269Z" fill="#FF6600"/>
<path d="M20.3256 22.6021H23.005V25.9549C23.3271 25.6328 23.6785 25.3839 24.0738 25.2228C24.4691 25.0618 24.8937 24.9739 25.3622 24.9739C26.2699 24.9739 27.002 25.2667 27.5584 25.8524C28.1147 26.438 28.3929 27.214 28.3929 28.1657C28.3929 29.0442 28.1147 29.747 27.573 30.274C27.0313 30.8011 26.2992 31.0647 25.3915 31.0647C24.8937 31.0647 24.4398 30.9768 24.0298 30.7865C23.6199 30.6108 23.2831 30.3326 22.9903 29.9812C22.9903 30.1715 22.9903 30.3472 22.961 30.5083C22.9464 30.6693 22.9171 30.8011 22.8878 30.9182H20.2085C20.2378 30.8158 20.2671 30.6693 20.2817 30.5083C20.2963 30.3472 20.311 30.1569 20.311 29.9519V22.6021H20.3256ZM25.6989 28.0486C25.6989 27.5361 25.5818 27.1408 25.3329 26.8334C25.0987 26.5405 24.7619 26.3941 24.352 26.3941C23.9127 26.3941 23.576 26.5405 23.3271 26.8187C23.0928 27.0969 22.9757 27.5215 22.9757 28.0632C22.9757 28.5757 23.0928 28.971 23.3271 29.2492C23.5613 29.5273 23.8981 29.6737 24.3227 29.6737C24.7473 29.6737 25.0694 29.5273 25.3183 29.2345C25.5672 28.9417 25.6989 28.5464 25.6989 28.0486Z" fill="#FF6600"/>
<path d="M34.5126 29.9929C34.2637 30.3296 33.927 30.5785 33.517 30.7396C33.1071 30.9006 32.6239 30.9885 32.0383 30.9885C31.2184 30.9885 30.5742 30.842 30.1349 30.5492C29.6957 30.2564 29.4761 29.8464 29.4761 29.3047C29.4761 28.5727 29.8567 28.0456 30.6181 27.7235C31.3794 27.4014 32.6679 27.2257 34.4687 27.211C34.4687 27.1964 34.4687 27.1818 34.4687 27.1525C34.4687 27.1232 34.4687 27.0939 34.4687 27.0793C34.4687 26.7864 34.3809 26.5668 34.2052 26.4204C34.0295 26.274 33.7659 26.2008 33.3999 26.2008C33.0778 26.2008 32.8289 26.2594 32.6532 26.3618C32.4775 26.4643 32.375 26.6254 32.3457 26.845H29.8714C29.886 26.2008 30.1935 25.7176 30.7791 25.4102C31.3794 25.1027 32.2872 24.9417 33.517 24.9417C34.6883 24.9417 35.5668 25.1173 36.1525 25.498C36.7235 25.864 37.0163 26.4204 37.0163 27.1671V30.1246C37.0163 30.3003 37.0309 30.4614 37.0456 30.5639C37.0602 30.681 37.0895 30.7835 37.1334 30.8713H34.6444C34.6005 30.7396 34.5566 30.5931 34.5419 30.4467C34.5273 30.3003 34.5126 30.1539 34.5126 29.9929ZM34.4541 28.3384C33.5902 28.3384 32.99 28.397 32.6825 28.5141C32.375 28.6312 32.214 28.8216 32.214 29.0997C32.214 29.2901 32.2872 29.4365 32.4482 29.5536C32.5946 29.6561 32.8143 29.7147 33.0924 29.7147C33.5463 29.7147 33.8831 29.6122 34.1173 29.3926C34.3516 29.1876 34.4541 28.8655 34.4541 28.4263V28.3384Z" fill="#FF6600"/>
<path d="M38.2426 22.6021H40.922V25.9549C41.2441 25.6328 41.5954 25.3839 41.9908 25.2228C42.3861 25.0618 42.8107 24.9739 43.2792 24.9739C44.1869 24.9739 44.919 25.2667 45.4754 25.8524C46.0317 26.438 46.3099 27.214 46.3099 28.1657C46.3099 29.0442 46.0317 29.747 45.49 30.274C44.9483 30.8011 44.2162 31.0647 43.3085 31.0647C42.8107 31.0647 42.3568 30.9768 41.9468 30.7865C41.5369 30.6108 41.2001 30.3326 40.9073 29.9812C40.9073 30.1715 40.8927 30.3472 40.878 30.5083C40.8634 30.6693 40.8341 30.8011 40.8048 30.9182H38.1255C38.1548 30.8158 38.1841 30.6693 38.1987 30.5083C38.2133 30.3472 38.228 30.1569 38.228 29.9519V22.6021H38.2426ZM43.6159 28.0486C43.6159 27.5361 43.4988 27.1408 43.2499 26.8334C43.0156 26.5405 42.6789 26.3941 42.2689 26.3941C41.8297 26.3941 41.493 26.5405 41.2587 26.8187C41.0244 27.0969 40.9073 27.5215 40.9073 28.0632C40.9073 28.5757 41.0244 28.971 41.2587 29.2492C41.493 29.5273 41.8297 29.6737 42.2543 29.6737C42.6643 29.6737 43.001 29.5273 43.2499 29.2345C43.4988 28.9417 43.6159 28.5464 43.6159 28.0486Z" fill="#FF6600"/>
<path d="M52.4301 29.9929C52.1812 30.3296 51.8445 30.5785 51.4345 30.7396C51.0246 30.9006 50.5414 30.9885 49.9558 30.9885C49.1359 30.9885 48.4916 30.842 48.0524 30.5492C47.6132 30.2564 47.3936 29.8464 47.3936 29.3047C47.3936 28.5727 47.7742 28.0456 48.5356 27.7235C49.2969 27.4014 50.5853 27.2257 52.3862 27.211C52.3862 27.1964 52.3862 27.1818 52.3862 27.1525C52.3862 27.1232 52.3862 27.0939 52.3862 27.0793C52.3862 26.7864 52.2984 26.5668 52.1227 26.4204C51.947 26.274 51.6834 26.2008 51.3174 26.2008C50.9953 26.2008 50.7464 26.2594 50.5707 26.3618C50.395 26.4643 50.2925 26.6254 50.2632 26.845H47.7889C47.8035 26.2008 48.111 25.7176 48.6966 25.4102C49.2969 25.1027 50.2047 24.9417 51.4345 24.9417C52.6058 24.9417 53.4843 25.1173 54.0699 25.498C54.6409 25.864 54.9338 26.4204 54.9338 27.1671V30.1246C54.9338 30.3003 54.9484 30.4614 54.963 30.5639C54.9777 30.681 55.007 30.7835 55.0509 30.8713H52.5619C52.518 30.7396 52.474 30.5931 52.4594 30.4467C52.4448 30.3003 52.4301 30.1539 52.4301 29.9929ZM52.3716 28.3384C51.5077 28.3384 50.9221 28.397 50.6 28.5141C50.2925 28.6312 50.1315 28.8216 50.1315 29.0997C50.1315 29.2901 50.2047 29.4365 50.3657 29.5536C50.5121 29.6561 50.7317 29.7147 51.0099 29.7147C51.4638 29.7147 51.8006 29.6122 52.0348 29.3926C52.2691 29.1876 52.3716 28.8655 52.3716 28.4263V28.3384Z" fill="#FF6600"/>
<path d="M15.9061 16.1974C15.7597 16.1827 15.5254 16.051 15.3644 15.9192C13.7977 14.3819 15.8036 12.6103 18.1462 11.5854V8.65717C18.6879 9.00855 18.9954 9.0232 19.01 9.06712L20.7962 7.29554L20.1959 5.77286C25.4228 3.97199 27.5165 3.28385 31.7625 2.56644L31.0011 1.84902L32.2456 1.14624C35.1007 2.08328 37.7946 2.33218 37.3261 4.73333C37.4433 3.10816 35.4228 2.49323 32.3481 1.6294L31.7478 1.99543L32.8899 2.93247C27.8094 3.81094 24.6761 4.80653 20.9573 6.09496L21.4697 7.41267L19.5957 9.2721C19.9031 9.35994 23.1681 10.4434 26.5502 8.08616C26.5502 8.08616 26.6234 8.04224 26.6234 8.01295C26.5209 7.8519 26.2867 7.66157 26.0085 7.41267C27.0041 7.48587 27.6483 8.3497 27.5312 9.25746H27.0627C27.0919 8.96463 27.0334 8.64252 26.9309 8.43755C24.3101 10.3555 21.2648 10.6337 18.6733 9.72597V11.9954C17.4141 12.4346 15.174 13.8255 15.1887 15.1725C15.2765 15.8021 15.5986 16.0363 15.9061 16.1974Z" fill="black"/>
<path d="M26.6253 15.447C23.8142 16.8672 21.1202 18.0092 16.9768 18.1703C11.5742 18.0531 10.7396 14.466 13.2872 10.7179C15.703 6.94048 19.539 3.51444 25.6297 1.37683C27.4013 0.74726 29.9928 0.0444842 32.4964 0.000560618C36.0981 -0.0287217 39.5974 1.08401 39.3631 4.53933C39.2314 7.18938 35.41 10.9082 33.4042 13.5876C32.5403 14.7589 32.3939 15.5202 33.8727 15.447C39.2167 15.0956 44.0483 13.2508 48.5432 11.3328C45.4978 13.3972 29.7878 21.1717 29.7292 15.8716C29.7439 15.1981 30.0513 14.4807 30.5638 13.7193C31.0616 12.958 31.7497 12.1674 32.4671 11.3621C33.5359 10.1469 36.2006 7.21866 37.0937 5.46172C38.6018 2.1821 35.2343 2.02104 32.3207 0.996159L31.0762 1.69893L31.8376 2.41636C27.5916 3.11913 25.4979 3.82191 20.271 5.62277L20.8713 7.14546L19.0997 8.9024C19.0558 8.85848 18.7923 8.84384 18.2359 8.49245V11.4207C15.9079 12.4456 13.8875 14.2171 15.4541 15.7545C15.6151 15.8862 15.8494 16.018 15.9958 16.0327C18.8655 17.6432 26.6399 15.447 26.6253 15.447Z" fill="#FF6600"/>
<path d="M43.4252 17.3493H43.7912C43.8644 17.3493 43.923 17.3347 43.9669 17.32C44.0109 17.3054 44.0401 17.2761 44.0694 17.2468C44.0987 17.2029 44.0987 17.1736 44.0987 17.1297C44.0987 17.0711 44.0694 17.0126 44.0255 16.9833C43.9816 16.9394 43.9084 16.9247 43.8205 16.9247H43.4252V17.3493ZM43.2642 18.0814V16.7783H43.8498C43.9669 16.7783 44.0548 16.793 44.1133 16.8076C44.1719 16.8369 44.2158 16.8662 44.2598 16.9394C44.3037 16.9979 44.3183 17.0565 44.3183 17.1297C44.3183 17.2176 44.289 17.3054 44.2305 17.364C44.1719 17.4225 44.0841 17.4665 43.9523 17.4811C43.9962 17.4957 44.0401 17.525 44.0548 17.5397C44.0987 17.5836 44.1573 17.6421 44.2012 17.7154L44.4355 18.0667H44.2158L44.0401 17.8032C43.9962 17.7154 43.9523 17.6568 43.9084 17.6129C43.8791 17.5689 43.8498 17.5397 43.8205 17.525C43.7912 17.5104 43.7766 17.4957 43.7473 17.4957C43.7327 17.4957 43.7034 17.4957 43.6448 17.4957H43.4252V18.0814H43.2642Z" fill="#FF6600"/>
<path d="M43.7841 18.6848C44.4722 18.6848 45.0286 18.1284 45.0286 17.4403C45.0286 16.7522 44.4722 16.1958 43.7841 16.1958C43.0959 16.1958 42.5396 16.7522 42.5396 17.4403C42.5396 18.1284 43.0959 18.6848 43.7841 18.6848ZM42.7299 17.4403C42.7299 16.8547 43.1984 16.3861 43.7841 16.3861C44.3697 16.3861 44.8382 16.8547 44.8382 17.4403C44.8382 18.0113 44.3697 18.4945 43.7841 18.4945C43.1984 18.4945 42.7299 18.0259 42.7299 17.4403Z" fill="#FF6600"/>
</svg>

<svg xmlns="http://www.w3.org/2000/svg" width="56" height="32" fill="none" xmlns:v="https://vecta.io/nano"><path d="M2.796 30.925H0l4.305-8.316h3.089l4.114 8.316H8.404l-.63-1.493H3.455l-.659 1.493zm4.231-3.309l-1.332-3.031-1.406 3.031h2.738zm5.115-5.007h2.679v8.316h-2.679v-8.316zm4.042 0h2.679v1.698h-2.679v-1.698zm0 2.518h2.679v5.798h-2.679v-5.798zm4.142-2.525h2.679v3.353c.322-.322.674-.571 1.069-.732a3.37 3.37 0 0 1 1.288-.249c.908 0 1.64.293 2.196.878s.835 1.362.835 2.313c0 .878-.278 1.581-.82 2.108s-1.274.791-2.181.791c-.498 0-.952-.088-1.362-.278-.41-.176-.747-.454-1.04-.805 0 .19 0 .366-.029.527a2.68 2.68 0 0 1-.073.41h-2.679c.029-.102.059-.249.073-.41l.029-.556v-7.35h.015zm5.373 5.447c0-.512-.117-.908-.366-1.215-.234-.293-.571-.439-.981-.439-.439 0-.776.146-1.025.425-.234.278-.351.703-.351 1.244 0 .513.117.908.351 1.186s.571.425.996.425.747-.146.996-.439.381-.688.381-1.186zm8.814 1.944a2.22 2.22 0 0 1-.996.747c-.41.161-.893.249-1.479.249-.82 0-1.464-.146-1.903-.439a1.4 1.4 0 0 1-.659-1.244c0-.732.381-1.259 1.142-1.581s2.05-.498 3.851-.513v-.058-.073c0-.293-.088-.512-.264-.659s-.439-.22-.805-.22c-.322 0-.571.059-.747.161a.62.62 0 0 0-.307.483h-2.474c.015-.644.322-1.127.908-1.435.6-.308 1.508-.468 2.738-.468 1.171 0 2.05.176 2.636.556.571.366.864.922.864 1.669v2.957a3.26 3.26 0 0 0 .029.439c.015.117.044.22.088.307h-2.489c-.044-.132-.088-.278-.102-.425l-.029-.454zm-.059-1.654c-.864 0-1.464.059-1.772.176s-.468.308-.468.586c0 .19.073.337.234.454.146.102.366.161.644.161.454 0 .791-.102 1.025-.322.234-.205.337-.527.337-.966v-.088zm3.789-5.737h2.679v3.353c.322-.322.673-.571 1.069-.732a3.37 3.37 0 0 1 1.288-.249c.908 0 1.64.293 2.196.878s.834 1.362.834 2.313c0 .878-.278 1.581-.82 2.108s-1.274.791-2.181.791c-.498 0-.952-.088-1.362-.278-.41-.176-.747-.454-1.04-.805 0 .19-.015.366-.029.527a2.56 2.56 0 0 1-.073.41h-2.679c.029-.102.059-.249.073-.41l.029-.556v-7.35h.015zm5.373 5.447c0-.512-.117-.908-.366-1.215-.234-.293-.571-.439-.981-.439-.439 0-.776.146-1.01.425s-.351.703-.351 1.244c0 .513.117.908.351 1.186s.571.425.996.425c.41 0 .747-.146.996-.439s.366-.688.366-1.186zm8.814 1.944a2.22 2.22 0 0 1-.996.747c-.41.161-.893.249-1.479.249-.82 0-1.464-.146-1.903-.439a1.4 1.4 0 0 1-.659-1.244c0-.732.381-1.259 1.142-1.581s2.05-.498 3.851-.513v-.058-.073c0-.293-.088-.512-.264-.659s-.439-.22-.805-.22c-.322 0-.571.059-.747.161a.62.62 0 0 0-.308.483h-2.474c.015-.644.322-1.127.908-1.435.6-.308 1.508-.468 2.738-.468 1.171 0 2.05.176 2.635.556.571.366.864.922.864 1.669v2.957a3.28 3.28 0 0 0 .029.439c.015.117.044.22.088.307h-2.489c-.044-.132-.088-.278-.102-.425l-.029-.454zm-.059-1.654c-.864 0-1.45.059-1.772.176-.308.117-.468.308-.468.586 0 .19.073.337.234.454.146.102.366.161.644.161.454 0 .791-.102 1.025-.322.234-.205.337-.527.337-.966v-.088z" fill="#f60"/><path d="M15.906 16.197c-.146-.015-.381-.146-.542-.278-1.567-1.537.439-3.309 2.782-4.334V8.657c.542.351.849.366.864.41l1.786-1.772-.6-1.523c5.227-1.801 7.321-2.489 11.567-3.206l-.761-.717 1.245-.703c2.855.937 5.549 1.186 5.08 3.587.117-1.625-1.903-2.24-4.978-3.104l-.6.366 1.142.937c-5.08.878-8.214 1.874-11.933 3.162l.512 1.318-1.874 1.859c.307.088 3.572 1.171 6.954-1.186 0 0 .073-.044.073-.073-.102-.161-.337-.351-.615-.6a1.63 1.63 0 0 1 1.523 1.845h-.468c.029-.293-.029-.615-.132-.82-2.621 1.918-5.666 2.196-8.258 1.288v2.269c-1.259.439-3.499 1.83-3.485 3.177a1.22 1.22 0 0 0 .717 1.025z" fill="#000"/><g fill="#f60"><path d="M26.625 15.447c-2.811 1.42-5.505 2.562-9.648 2.723-5.403-.117-6.237-3.704-3.69-7.452 2.416-3.777 6.252-7.203 12.343-9.341C27.401.747 29.993.044 32.496.001c3.602-.029 7.101 1.083 6.867 4.539-.132 2.65-3.953 6.369-5.959 9.048-.864 1.171-1.01 1.933.468 1.859 5.344-.351 10.176-2.196 14.67-4.114-3.045 2.064-18.755 9.839-18.814 4.539.015-.674.322-1.391.835-2.152.498-.761 1.186-1.552 1.903-2.357 1.069-1.215 3.733-4.143 4.627-5.9 1.508-3.28-1.859-3.441-4.773-4.466l-1.245.703.761.717c-4.246.703-6.34 1.406-11.567 3.206l.6 1.523L19.1 8.902c-.044-.044-.307-.059-.864-.41v2.928c-2.328 1.025-4.348 2.796-2.782 4.334.161.132.395.264.542.278 2.87 1.611 10.644-.586 10.63-.586zm16.8 1.902h.366a.57.57 0 0 0 .176-.029c.044-.014.073-.044.102-.073.029-.044.029-.073.029-.117a.18.18 0 0 0-.073-.146c-.044-.044-.117-.059-.205-.059h-.395v.425zm-.161.732v-1.303h.586a1.09 1.09 0 0 1 .264.029.31.31 0 0 1 .146.132c.044.059.059.117.059.19 0 .088-.029.176-.088.234s-.146.102-.278.117c.044.015.088.044.102.059.044.044.102.102.146.176l.234.351h-.22l-.176-.264a.71.71 0 0 0-.132-.19c-.029-.044-.059-.073-.088-.088s-.044-.029-.073-.029h-.103-.22v.586h-.161z"/><path d="M43.784 18.685c.688 0 1.244-.556 1.244-1.244s-.556-1.245-1.244-1.245-1.245.556-1.245 1.245.556 1.244 1.245 1.244zM42.73 17.44a1.05 1.05 0 1 1 2.108 0 1.06 1.06 0 0 1-1.054 1.054 1.05 1.05 0 0 1-1.054-1.054z"/></g></svg>
